X:1
T:Wind of the western sea
T:Wind of the western sea 
T:J.D.Kinsley
T:Alfred, Lord Tennyson
T:Library of Congress, Music Division - https://www.loc.gov/item/sm1870.05292/. - public domain
T:Library of Congress, Music Division - https://www.loc.gov/item/sm1870.05292/. - public domain
T:Library of Congress, Music Division - https://www.loc.gov/item/sm1870.05292/. - public domain
C:J.D.Kinsley
Z:Tennyson
Z:Library of Congress, Music Division - https://www.loc.gov/item/sm1870.05292/. - public domain
%%score 1 { 2 | ( 3 4 ) }
L:1/8
Q:1/4=85
M:6/8
K:Bb
V:1 treble nm="Voice"
V:2 treble nm="Piano"
V:3 bass 
V:4 bass 
V:1
"^Andante" z6 | z6 |!p! F2 F d3 | d2 c c3 | F E F G2 F | F3 z2 z | F3 d3 | d2 c c3 | %8
w: ||Sweet and low,|sweet and low,|Wind of the west\- ern|sea.|Low, low,|Breathe and blow,|
 A B =B (c2 =E) | F3 z2 z | F F F G2 F | FG A B2 G | F F F G2 F | FB c d3 | %14
w: Wind of the west\- ern|sea.|O\- ver the roll\- ing|wa- * ters go, Co\-|me from the dy\- ing|mo\- on and blow,|
"^rall. e" d"^cresc." d d (3(d/=e/d/)^c d |!f! f3 !fermata!f2 z | %16
w: blow him a\- gain * * * to|me. *|
!pp! A"^lento"B d d3/2 c/ !fermata!c | AB A G D =E |"^Tempo I°" F3 z2 z | z6 | F2 F d3 | d2 c c3 | %22
w: While * my kit\- tle onem|while * my pret\- ty one|sleeps.||Sleep and rest,|sleep and rest,|
 F E E G G F | F3 z2 z | F3 d2 d | d2 c c3 | A B =B c c =E | F3 z2 z |!p! F F F G G F | %29
w: Fa\- ther will come to thee|soon.|Rest, rest, on|mo\- ther's breast,|Fa\- ther will come to thee|soon.|Fa\- ther will come to the|
 F G A (B2 G) | F2 F G2 F | F B c d3 |"^rall. e" d"^cresc." d d (3(d/=e/d/)^c d | %33
w: babe in his nest *|Sil\- ver sails all|out of the West;|Un\- der the sil\- _ _ _ ver|
!f! f3-!>(! !fermata!f2 z!>)! |!p! AB d d3/2 c/ c | (AB A G D =E) | F3 z2 z | z6 |] %38
w: moon *|Sle\- ep my kit\- tle one,|sle\- ep my pret\- ty one|sleep.||
V:2
!pp! z6 | z6 | [DF]2 [DF] [DFd]3 | [_E_Gd]2 [EGc] [EGc]3 | [CEF]2 [CEF] [A,E=G]2 [A,EF] | %5
 [B,DF]3 [B,DF]3 |!<(! [DF]3 [DFd]3!<)! | [DFd]2 [CFc] [CFc]3 | [CFA]2 [DF^G=B] [CFc]2 [C=E_B] | %9
 [CFA]3- [CFA]3 | [CEF]2 [CEF] [CEG]2 [CEF] | [B,DF][B,DG][DFA] [DFB]2 [A,CEG] | %12
 [CEF][CEF][CEF] [CEG]2 [CEF] | [DF][DFB][DFc] [DFd]3 | %14
 [DFBd]"_cresc."[DFBd][DFBd] [DF_Ad][DFA^c][DFAd] | !fermata![FAcf]3 [CFc]3 | %16
!pp! [CFA][DFB][Ed] [Ed]>[Fc]!fermata![Fc] | [CFA][DFB][CFA] [=B,FG][G,_B,D][B,C=E] | %18
 [A,CF]3!>(! [B,D]2 [B,_D]!>)! | [A,C]3 [A,CEF]3 | [DF]2 [DF] [DFd]3 | [D_Gd]2 [EGc] [EGc]3 | %22
 [CEF]2 [CEF] [A,EG]2 [A,EF] | [B,DF]3- [B,DF]3 | [DF]3 [DFd]3 | [DFd]2 [CFc] [CFc]3 | %26
 [CFA]2 [DF^G=B] [CFc]2 [CE_B] | [B,DF]3- [B,DF]3 |!pp! [CEF]2 [CEF] [CEG]2 [CEF] | %29
 [B,DF][B,DG][B,DA] [DFB]2 [A,CEG] | [CEF]2 [CEF] [CEG]2 [CEF] | [DF][DFB][DFc] [DFd]3 | %32
 [DFBd]"_cresc. molto"[DFBd][DFBd] [DF_Ad][DFA^c][DFAd] | (!fermata![FAcf]3!>(! [CFc]3)!>)! | %34
!p! [CFA][DFB][=Ed] [Ed]>[Fc][Fc] | ([CFA][DFB][CFA] [=B,FG][G,_B,D][B,C=E]) | %36
!p! [A,CF]3"_dim." [B,D]2 [B,_D]/ z/ | [A,C]3!pp! [A,CF]3 |] %38
V:3
x/(F,/=E,/F,/E,/F,/)x/(F,/E,/F,/E,/F,/) |x/(F,/=E,/F,/E,/F,/)x/(F,/E,/F,/E,/F,/) | %2
!pp!x/(F,/=E,/F,/E,/F,/)x/(F,/E,/F,/E,/F,/) |x/(F,/=E,/F,/E,/F,/)x/(F,/E,/F,/E,/F,/) | %4
 (F,,/F,/=E,/F,/E,/F,/) (F,,/F,/E,/F,/E,/F,/) | (B,,/F,/=E,/F,/E,/F,/) (F,,/F,/E,/F,/E,/F,/) | %6
!p!x/"_cresc."(F,/=E,/F,/E,/F,/)x/(F,/E,/F,/E,/F,/) | C,/A,/F,/A,/F,/A,/ C,/A,/F,/A,/F,/A,/ | %8
 [C,F,A,]2 [=B,,F,^G,] [C,A,]2 [C,G,_B,] | A,,/F,/=E,/F,/E,/F,/ A,,/F,/E,/F,/E,/F,/ | %10
 A,,/F,/=E,/F,/E,/F,/ A,,/F,/E,/F,/E,/F,/ |x/F,/=E,/F,/E,/F,/x/F,/E,/F,/E,/F,/ | %12
x/F,/=E,/F,/E,/F,/x/F,/E,/F,/E,/F,/ |x/F,/=E,/F,/E,/F,/x/F,/E,/F,/E,/F,/ | %14
"^rall. e"x/B,/F,/B,/E,/B,/x/_A,/F,/A,/F,/A,/ | !fermata![C,F,C]3 [C,F,A,]3 | %16
 A,"^lento"G,B, B,>A,!fermata!A, | [C,,C,]3 [C,,C,]3 | %18
"^Tempo I°" F,,/F,/=E,/F,/E,/F,/ F,,/F,/E,/F,/E,/F,/ | F,,/F,/=E,/F,/E,/F,/ F,,/F,/E,/F,/E,/F,/ | %20
 B,,/F,/=E,/F,/E,/F,/ F,,/F,/E,/F,/E,/F,/ | B,,/F,/_G,/F,/G,/F,/ B,,/F,/G,/F,/G,/F,/ | %22
 F,,/F,/=E,/F,/E,/F,/ F,,/F,/E,/F,/E,/F,/ | B,,/F,/=E,/F,/E,/F,/ F,,/F,/E,/F,/E,/F,/ | %24
 B,,/F,/=E,/F,/E,/F,/ F,,/F,/E,/F,/E,/F,/ | C,/A,/F,/A,/F,/A,/ C,/A,/F,/A,/F,/A,/ | %26
 [C,F,A,]2 [=B,,F,^G,] [C,A,]2 [C,G,B,] | B,,/F,/=E,/F,/E,/F,/ F,,/F,/E,/F,/E,/F,/ | %28
 F,,/F,/=E,/F,/E,/F,/ F,,/F,/E,/F,/E,/F,/ | B,,/F,/=E,/F,/E,/F,/ F,,/F,/E,/F,/E,/F,/ | %30
 F,,/F,/=E,/F,/E,/F,/ F,,/F,/E,/F,/E,/F,/ | B,,/F,/=E,/F,/E,/F,/ B,,/F,/E,/F,/E,/F,/ | %32
"^rall. e" B,,/B,/F,/B,/E,/B,/ =B,,/_A,/F,/A,/F,/A,/ | (!fermata!A,3 [C,F,A,]3) | %34
 (.A,.G,.B, .B,>.A,.A,) | [C,,C,]3 [C,,C,]3 | %36
 F,,/F,/=E,/F,/E,/(F,/"^morendo" F,,/F,/=E,/_D,/B,,/_G,,/ | F,,3) [F,,F,]3 |] %38
V:4
 B,,3 F,,3 | B,,3 F,,3 | B,,3 F,,3 | B,,3 F,,3 | x6 | x6 | B,,3 F,,3 | x6 | x6 | x6 | x6 | %11
 B,,3 F,,3 | F,,3 F,,3 | B,,3 B,,3 | B,,3 =B,,3 | x6 | C,3 C,3 | x6 | x6 | x6 | x6 | x6 | x6 | x6 | %24
 x6 | x6 | x6 | x6 | x6 | x6 | x6 | x6 | x6 | x6 | C,3 C,3 | x6 | x6 | x6 |] %38

